X: 10292
T: Doinna
R: waltz
M: 3/4
K: Adorian
A2|:e4de|g4e2|d4cA|B4A2|A4G2|=f6|e6-|e4A2|
e4de|g4e2|d4cA|B4E2|A4Bc|B4A2|1 A6-|A4A2:|2 B/c/d2c/B/A2-|A4E2|
|:A4B2|c4e2|B4AG|g6|g4a2|e4de|^c4d2|e4d^c|d6|A4de|
=f4a2|e4dB|c4A2|B4A2|G4Bc|B6|1 A6-|A4E2:|2 A6-|A4||

